www/assets/icons/headset.svg

<svg xmlns="http://www.w3.org/2000/svg" width="24" height="24" viewBox="0 0 24 24" fill='currentColor'><path d="M12 2.5a9 9 0 0 0-9 9v7c0 1.66 1.34 3 3 3h3v-8H5v-2c0-3.87 3.13-7 7-7s7 3.13 7 7v2h-4v8h3c1.66 0 3-1.34 3-3v-7a9 9 0 0 0-9-9"/></svg>

<svg width="24" height="24" viewBox="0 0 24 24" xmlns="http://www.w3.org/2000/svg" fill='currentColor'><path d="M12 2.5C7.03 2.5 3 6.53 3 11.5V18.5C3 20.16 4.34 21.5 6 21.5H9V13.5H5V11.5C5 7.63 8.13 4.5 12 4.5C15.87 4.5 19 7.63 19 11.5V13.5H15V21.5H18C19.66 21.5 21 20.16 21 18.5V11.5C21 6.53 16.97 2.5 12 2.5Z"/></svg>
